vendor/shopware/storefront/Resources/app/storefront/dist/assets/icon/default/bell-crossed.svg

<svg xmlns="http://www.w3.org/2000/svg" width="24" height="24" viewBox="0 0 24 24">
  <path fill="#758CA3" fill-rule="evenodd" d="M2,18.5 C2,19.0522847 1.55228475,19.5 1,19.5 C0.44771525,19.5 6.5228647e-17,19.0522847 0,18.5 C-1.49590948e-16,17.2334277 0.618425361,16.0466432 1.65654169,15.3210262 L2.42710184,14.7824242 C3.41280071,14.0934457 4,12.9665854 4,11.7639659 L4,7.60205078 C4,3.40355407 7.40355407,7.67031829e-16 11.6020508,0 L12.4608154,8.8817842e-16 C14.2327594,6.38897496e-16 15.9129825,0.6145108 17.2526833,1.71852394 C17.6788946,2.06975375 17.7396791,2.69999429 17.3884493,3.12620558 C17.0372195,3.55241687 16.406979,3.61320136 15.9807677,3.26197155 C14.9960094,2.45045745 13.7643483,2 12.4608154,2 L11.6020508,2 C8.50812357,2 6,4.50812357 6,7.60205078 L6,11.7639659 C6,13.6196995 5.09390669,15.358531 3.57289816,16.4216773 L2.802338,16.9602793 C2.29953135,17.3117284 2,17.8865418 2,18.5 Z M15.9645556,21 C15.7219407,22.6961471 14.263236,24 12.5,24 C10.7290965,24 9.2653785,22.6847827 9.03234842,20.9778504 C8.58103801,20.88126 8.24264069,20.4801485 8.24264069,20 C8.24264069,19.4477153 8.69035594,19 9.24264069,19 L21.5,19 C21.7761424,19 22,18.7761424 22,18.5 C22,17.8765326 21.7023472,17.2905282 21.1988785,16.9227908 L20.4101737,16.3467147 C18.8954883,15.2403768 18,13.4773828 18,11.6016815 L18,10.2426407 C18,9.69035594 18.4477153,9.24264069 19,9.24264069 C19.5522847,9.24264069 20,9.69035594 20,10.2426407 L20,11.6016815 C20,12.838953 20.5906922,14.0018792 21.5898263,14.7316544 L22.378531,15.3077304 C23.3975511,16.0520305 24,17.2381028 24,18.5 C24,19.8807119 22.8807119,21 21.5,21 L15.9645556,21 Z M13.9146471,21 L11.0853529,21 C11.2912711,21.5825962 11.8468906,22 12.5,22 C13.1531094,22 13.7087289,21.5825962 13.9146471,21 Z M20.2928932,2.29289322 C20.6834175,1.90236893 21.3165825,1.90236893 21.7071068,2.29289322 C22.0976311,2.68341751 22.0976311,3.31658249 21.7071068,3.70710678 L3.70710678,21.7071068 C3.31658249,22.0976311 2.68341751,22.0976311 2.29289322,21.7071068 C1.90236893,21.3165825 1.90236893,20.6834175 2.29289322,20.2928932 L20.2928932,2.29289322 Z"/>
</svg>

<svg xmlns="http://www.w3.org/2000/svg" width="24" height="24" viewBox="0 0 24 24"><path fill="#758CA3" fill-rule="evenodd" d="M2 18.5c0 .5523-.4477 1-1 1s-1-.4477-1-1a3.8786 3.8786 0 0 1 1.6565-3.179l.7706-.5386A3.6827 3.6827 0 0 0 4 11.764V7.602C4 3.4037 7.4036 0 11.602 0h.8588c1.772 0 3.4522.6145 4.7919 1.7185.4262.3513.487.9815.1357 1.4077-.3512.4262-.9814.487-1.4076.1358C14.996 2.4505 13.7643 2 12.4608 2h-.8587C8.508 2 6 4.5081 6 7.602v4.162a5.6827 5.6827 0 0 1-2.4271 4.6577l-.7706.5386A1.8786 1.8786 0 0 0 2 18.5zM15.9646 21c-.2427 1.6961-1.7014 3-3.4646 3-1.7709 0-3.2346-1.3152-3.4677-3.0221-.4513-.0966-.7897-.4978-.7897-.9779 0-.5523.4478-1 1-1H21.5a.5.5 0 0 0 .5-.5 1.9531 1.9531 0 0 0-.8011-1.5772l-.7887-.576A5.876 5.876 0 0 1 18 11.6016v-1.359c0-.5523.4477-1 1-1s1 .4477 1 1v1.359a3.876 3.876 0 0 0 1.5898 3.13l.7887.576A3.9531 3.9531 0 0 1 24 18.5c0 1.3807-1.1193 2.5-2.5 2.5h-5.5354zm-2.05 0h-2.8292c.2059.5826.7615 1 1.4146 1 .6531 0 1.2087-.4174 1.4146-1zM20.293 2.2929c.3905-.3905 1.0237-.3905 1.4142 0 .3905.3905.3905 1.0237 0 1.4142l-18 18c-.3905.3905-1.0237.3905-1.4142 0-.3905-.3905-.3905-1.0237 0-1.4142l18-18z"/></svg>
